X:1
T:Raptptap
M:6/8
L:1/8
K:G
 z3 B2 A| G2 GG-F E| D2 C B,2 D| G2 GA-G A| B3 B2 B| c2- cc-B A| G2 F E2 F|\
G-G A GFE| D3- D2 A| B2 AG-A B| c2 B ABA| G2 GG-F E| D2 C B,3-| B,3 B,2- C|\
 DDD DB,D| G2 A B3-| B3 c3| BAG E2 F| G3- G2 z|
